wp-content/themes/slurve/assets/images/samsung.svg

<svg height="40" viewBox="0 0 81 40" width="81" xmlns="http://www.w3.org/2000/svg"><g fill="none" fill-rule="evenodd"><g fill="#1428a0"><path d="m62.4318937 15.3846154v5.9790297h6.1188414v18.6363549h6.2290886v-18.6363549h6.1504089v-5.9790297z"/><path d="m14.6311442 15.3846154v13.0717078l-8.32994652-13.0717078h-6.30119768v24.6153846h6.17924973v-13.5591154l8.60919317 13.5591154h6.0221883v-24.6153846z"/><path d="m22.3521595 40h15.4152824v-5.9790872h-9.2399224v-3.4014374h9.2399224v-5.9786137h-9.2399224v-3.2776325h9.2399224v-5.9786138h-15.4152824z"/></g><path d="m53.9389259 27.7151512.0145625-.022015-8.1288434-12.3085208h-7.286439l7.8338907 12.3071005-.013822.022015-7.8200687 12.2862691h7.3214878z" fill="#00b9e8"/><path d="m53.1827243 15.3846154h8.4784053l-4.3115516 6.1538461z" fill="#1428a0"/><path d="m53.1827243 39.2307692h8.4784053l-4.3115516-6.1538461z" fill="#1428a0"/><path d="m75.9399761 5.47575244v1.7146639h1.2225342v1.70179178c.0034493.1517939-.0051739.31573131-.0315365.44688124-.0482904.31816001-.3542935.85757484-1.2222878.85757484-.8625741 0-1.1634032-.53941483-1.2151429-.85757484-.0219277-.13114993-.0312902-.29508734-.0312902-.44688124v-5.37447556c0-.18992452.0130582-.39830719.0539571-.55544424.0591311-.28682975.3165975-.85150306 1.1858237-.85150306.9128354 0 1.1404899.59551783 1.1924759.85150306.0344931.16903769.0364642.45392448.0364642.45392448v.65186373h3.0045958v-.38592081s.0130581-.40267886-.0229132-.77839912c-.2259299-2.20550466-2.0695864-2.9037566-4.1837673-2.9037566-2.1178767 0-3.9248227.70456657-4.187463 2.9037566-.0236525.20182517-.060363.56345895-.060363.77839912v4.94410948c0 .21542591.0068986.38227776.0475512.77524181.1963644 2.14551569 2.0823981 2.90618529 4.1916515 2.90618529 2.1228042 0 3.9955335-.7606696 4.1953471-2.90618529.0352323-.39296405.0384352-.5598159.0438555-.77524181v-3.15051276zm-20.4486342-5.47575244h-2.7753924v8.28418379c.0045331.14409489 0 .30646184-.0247054.42557719-.0573437.27778164-.2887587.81345379-1.0543998.81345379-.7556683 0-.9927496-.53567215-1.0466935-.81345379-.0278786-.11911535-.0308251-.2814823-.0278786-.42557719v-8.28418379h-2.7744858v8.02744973c-.0031732.20654371.0126927.62957669.0247054.73967166.1917503 2.09203571 1.806895 2.77134011 3.8243525 2.77134011 2.0215374 0 3.6362287-.6793044 3.8306989-2.77134011.0158658-.11009497.0358115-.53312795.0237987-.73967166zm-25.8736635 0-1.4871006 9.01924149-1.4858835-9.01924149h-4.8089169l-.2543821 11.5384615h2.9459637l.0793575-10.68196005 2.0265367 10.68196005h2.9885635l2.0292144-10.68196005.0796009 10.68196005h2.9537534l-.2638758-11.5384615zm-17.4933148 0-2.10443 11.5384615h3.0686672l1.585478-10.68196005 1.5477063 10.68196005h3.0473179l-2.0957496-11.5384615zm53.9032039 9.38755359-2.5924961-9.38755359h-4.0862342v11.5384615h2.7030087l-.1569005-9.68908045 2.7846424 9.68908045h3.9184188v-11.5384615h-2.7205178zm-25.9142602-6.06289943c-.0531439-.22939395-.0374701-.47269056-.010041-.60021154.0844913-.37153669.3394349-.77687124 1.0743873-.77687124.6849924 0 1.0861427.41827841 1.0861427 1.04557617v.70975493h2.9236464v-.80923089c0-2.5008015-2.2908182-2.89367159-3.949543-2.89367159-2.088039 0-3.793785.67427917-4.1057909 2.55497395-.0822872.51248093-.102859.96767331.0284087 1.54703085.5079279 2.34595459 4.680822 3.0271851 5.2869557 4.51093486.1067775.28068998.0761647.63928282.0220413.85069918-.0911038.38639816-.3565781.77447426-1.1429601.77447426-.738626 0-1.1821445-.41540202-1.1821445-1.04078217l-.0012245-1.11389098h-3.1465077v.88545584c0 2.56456201 2.0530179 3.33879651 4.2642428 3.33879651 2.1176721 0 3.866766-.7078373 4.1479141-2.62856218.1334718-.99188312.0328169-1.63787756-.0208168-1.88117417-.4905397-2.40635927-4.9379696-3.12977717-5.2747105-4.47330179zm-36.99586606.00246095c-.05693182-.23132976-.04336509-.47570889-.01187089-.60335547.08018908-.36561965.33383852-.77347181 1.07370995-.77347181.68608903 0 1.08994157.41734261 1.08994157 1.04252612v.71083483h2.92605342v-.80668839c0-2.49883594-2.30101468-2.89696039-3.95906317-2.89696039-2.0837047 0-3.78632959.67690647-4.0978799 2.55316877-.08503434.51461975-.10005465.96778882.02325725 1.54860446.50851019 2.34841228 4.67688866 3.02769136 5.28375766 4.51342158.11362138.2764094.07922002.63158956.02253046.84820912-.09593617.38626138-.36072971.77655617-1.14541981.77655617-.73260354 0-1.17109971-.41829162-1.17109971-1.04584774l-.00436073-1.1051631h-3.14699734v.87810404c0 2.567879 2.05923613 3.340639 4.26383011 3.340639 2.11955964 0 3.85973531-.7075132 4.14366763-2.63027869.14148164-.99104042.03561267-1.63615387-.01259768-1.88029574-.4947012-2.41104926-4.9436203-3.12496849-5.27745882-4.47000276z" fill="#1428a0"/></g></svg>

<svg
  class="samsungnext-logo"
  width="81px"
  height="40px"
  viewBox="0 0 81 40"
  version="1.1"
  xmlns="http://www.w3.org/2000/svg"
  xmlns:xlink="http://www.w3.org/1999/xlink"
>
    <defs />
    <g
    id="Symbols"
    stroke="none"
    stroke-width="1"
    fill="none"
    fill-rule="evenodd"
  >
        <g id="LOGO-BAR-Copy-4" transform="translate(-30.000000, -10.000000)">
            <g id="Logo-bar-Copy-2">
                <g id="Group" transform="translate(30.000000, 10.000000)">
                    <polygon
            id="Fill-1"
            fill="#1428A0"
            points="62.4318937 15.3846154 62.4318937 21.3636451 68.5507351 21.3636451 68.5507351 40 74.7798237 40 74.7798237 21.3636451 80.9302326 21.3636451 80.9302326 15.3846154"
          />
                    <polygon
            id="Fill-2"
            fill="#1428A0"
            points="14.6311442 15.3846154 14.6311442 28.4563232 6.30119768 15.3846154 0 15.3846154 0 40 6.17924973 40 6.17924973 26.4408846 14.7884429 40 20.8106312 40 20.8106312 15.3846154"
          />
                    <polygon
            id="Fill-3"
            fill="#1428A0"
            points="22.3521595 40 37.7674419 40 37.7674419 34.0209128 28.5275195 34.0209128 28.5275195 30.6194754 37.7674419 30.6194754 37.7674419 24.6408617 28.5275195 24.6408617 28.5275195 21.3632292 37.7674419 21.3632292 37.7674419 15.3846154 22.3521595 15.3846154"
          />
                    <polygon
            id="Fill-4"
            fill="#00B9E8"
            points="53.9389259 27.7151512 53.9389259 27.7151512 53.9534884 27.6931362 45.824645 15.3846154 38.538206 15.3846154 46.3720967 27.6917159 46.3582747 27.7137309 38.538206 40 45.8596938 40"
          />
                    <polygon
            id="Fill-5"
            fill="#1428A0"
            points="53.1827243 15.3846154 61.6611296 15.3846154 57.349578 21.5384615"
          />
                    <polygon
            id="Fill-6"
            fill="#1428A0"
            points="53.1827243 39.2307692 61.6611296 39.2307692 57.349578 33.0769231"
          />
                    <path
            d="M75.9399761,5.47575244 L75.9399761,7.19041634 L77.1625103,7.19041634 L77.1625103,8.89220812 C77.1659596,9.04400202 77.1573364,9.20793943 77.1309738,9.33908936 C77.0826834,9.65724937 76.7766803,10.1966642 75.908686,10.1966642 C75.0461119,10.1966642 74.7452828,9.65724937 74.6935431,9.33908936 C74.6716154,9.20793943 74.6622529,9.04400202 74.6622529,8.89220812 L74.6622529,3.51773256 C74.6622529,3.32780804 74.6753111,3.11942537 74.71621,2.96228832 C74.7753411,2.67545857 75.0328075,2.11078526 75.9020337,2.11078526 C76.8148691,2.11078526 77.0425236,2.70630309 77.0945096,2.96228832 C77.1290027,3.13132601 77.1309738,3.4162128 77.1309738,3.4162128 L77.1309738,4.06807653 L80.1355696,4.06807653 L80.1355696,3.68215572 C80.1355696,3.68215572 80.1486277,3.27947686 80.1126564,2.9037566 C79.8867265,0.698251941 78.04307,0 75.9288891,0 C73.8110124,0 72.0040664,0.704566568 71.7414261,2.9037566 C71.7177736,3.10558177 71.6810631,3.46721555 71.6810631,3.68215572 L71.6810631,8.6262652 C71.6810631,8.84169111 71.6879617,9.00854296 71.7286143,9.40150701 C71.9249787,11.5470227 73.8110124,12.3076923 75.9202658,12.3076923 C78.04307,12.3076923 79.9157993,11.5470227 80.1156129,9.40150701 C80.1508452,9.00854296 80.1540481,8.84169111 80.1594684,8.6262652 L80.1594684,5.47575244 L75.9399761,5.47575244 Z M55.4913419,0 L52.7159495,0 L52.7159495,8.28418379 C52.7204826,8.42827868 52.7159495,8.59064563 52.6912441,8.70976098 C52.6339004,8.98754262 52.4024854,9.52321477 51.6368443,9.52321477 C50.881176,9.52321477 50.6440947,8.98754262 50.5901508,8.70976098 C50.5622722,8.59064563 50.5593257,8.42827868 50.5622722,8.28418379 L50.5622722,0 L47.7877864,0 L47.7877864,8.02744973 C47.7846132,8.23399344 47.8004791,8.65702642 47.8124918,8.76712139 C48.0042421,10.8591571 49.6193868,11.5384615 51.6368443,11.5384615 C53.6583817,11.5384615 55.273073,10.8591571 55.4675432,8.76712139 C55.483409,8.65702642 55.5033547,8.23399344 55.4913419,8.02744973 L55.4913419,0 Z M29.6176784,0 L28.1305778,9.01924149 L26.6446943,0 L21.8357774,0 L21.5813953,11.5384615 L24.527359,11.5384615 L24.6067165,0.856501451 L26.6332532,11.5384615 L29.6218167,11.5384615 L31.6510311,0.856501451 L31.730632,11.5384615 L34.6843854,11.5384615 L34.4205096,0 L29.6176784,0 Z M12.1243636,0 L10.0199336,11.5384615 L13.0886008,11.5384615 L14.6740788,0.856501451 L16.2217851,11.5384615 L19.269103,11.5384615 L17.1733534,0 L12.1243636,0 Z M66.0275675,9.38755359 L63.4350714,0 L59.3488372,0 L59.3488372,11.5384615 L62.0518459,11.5384615 L61.8949454,1.84938105 L64.6795878,11.5384615 L68.5980066,11.5384615 L68.5980066,0 L65.8774888,0 L66.0275675,9.38755359 Z M40.1133073,3.32465416 C40.0601634,3.09526021 40.0758372,2.8519636 40.1032663,2.72444262 C40.1877576,2.35290593 40.4427012,1.94757138 41.1776536,1.94757138 C41.862646,1.94757138 42.2637963,2.36584979 42.2637963,2.99314755 L42.2637963,3.70290248 L45.1874427,3.70290248 L45.1874427,2.89367159 C45.1874427,0.392870091 42.8966245,0 41.2378997,0 C39.1498607,0 37.4441147,0.674279174 37.1321088,2.55497395 C37.0498216,3.06745488 37.0292498,3.52264726 37.1605175,4.1020048 C37.6684454,6.44795939 41.8413395,7.1291899 42.4474732,8.61293966 C42.5542507,8.89362964 42.5236379,9.25222248 42.4695145,9.46363884 C42.3784107,9.850037 42.1129364,10.2381131 41.3265544,10.2381131 C40.5879284,10.2381131 40.1444099,9.82271108 40.1444099,9.19733093 L40.1431854,8.08343995 L36.9966777,8.08343995 L36.9966777,8.96889579 C36.9966777,11.5334578 39.0496956,12.3076923 41.2609205,12.3076923 C43.3785926,12.3076923 45.1276865,11.599855 45.4088346,9.67913012 C45.5423064,8.687247 45.4416515,8.04125256 45.3880178,7.79795595 C44.8974781,5.39159668 40.4500482,4.66817878 40.1133073,3.32465416 Z M3.11744124,3.32711511 C3.06050942,3.09578535 3.07407615,2.85140622 3.10557035,2.72375964 C3.18575943,2.35813999 3.43940887,1.95028783 4.1792803,1.95028783 C4.86536933,1.95028783 5.26922187,2.36763044 5.26922187,2.99281395 L5.26922187,3.70364878 L8.19527529,3.70364878 L8.19527529,2.89696039 C8.19527529,0.398124449 5.89426061,0 4.23621212,0 C2.15250742,0 0.44988253,0.676906469 0.138332216,2.55316877 C0.0532978764,3.06778852 0.0382775658,3.52095759 0.161589471,4.10177323 C0.670099664,6.45018551 4.83847813,7.12946459 5.44534713,8.61519481 C5.55896851,8.89160421 5.52456715,9.24678437 5.46787759,9.46340393 C5.37194142,9.84966531 5.10714788,10.2399601 4.32245778,10.2399601 C3.58985424,10.2399601 3.15135807,9.82166848 3.15135807,9.19411236 L3.14699734,8.08894926 L0,8.08894926 L0,8.9670533 C0,11.5349323 2.05923613,12.3076923 4.26383011,12.3076923 C6.38338975,12.3076923 8.12356542,11.6001791 8.40749774,9.67741361 C8.54897938,8.68637319 8.44311041,8.04125974 8.39490006,7.79711787 C7.90019886,5.38606861 3.45127976,4.67214938 3.11744124,3.32711511 Z"
            id="Fill-7"
            fill="#1428A0"
          />
                </g>
            </g>
        </g>
    </g>
</svg>
